!!!COM: Traditional Manx Air
!!!CDT: NA
!!!OTL: National Anthem, Isle of Man
!!!ENC: Davis, Matthew J.
!!Vocal Line Only
**kern
*clefG2
*k[b-e-]
*B-:
*M3/4
=1-
8.b-
16a
=2
4b-
4f
4b-
=3
2b-
8.dd
16cc
=4
4b-
4a
4g
=5
2f
8.cc
16dd
=6
4ee-
4dd
4cc
=7
4b-
4a
4b-
=8
2cc
8.a
16b-
=9
4cc
4f
4dd
=10
2cc
8.a
16b-
=11
4cc
4cc
4dd
=12
2ee-
8.cc
16cc
=13
4ff
8ee-
8dd
8cc
8b-
=14
4f
4b-
4a
=15
[2.b-
=16
2b-]
==|!
*-
